public/images/icons/linkedin.svg

<?xml version="1.0" encoding="UTF-8" standalone="no"?>
<svg viewBox="0 0 448 448" version="1.1" id="svg1" sodipodi:docname="linkedin.svg" inkscape:version="1.4.2 (unknown)" width="448" height="448" xmlns:inkscape="http://www.inkscape.org/namespaces/inkscape" xmlns:sodipodi="http://sodipodi.sourceforge.net/DTD/sodipodi-0.dtd" xmlns="http://www.w3.org/2000/svg" xmlns:svg="http://www.w3.org/2000/svg">
  <defs id="defs1" />
  <sodipodi:namedview id="namedview1" pagecolor="#505050" bordercolor="#eeeeee" borderopacity="1" inkscape:showpageshadow="0" inkscape:pageopacity="0" inkscape:pagecheckerboard="0" inkscape:deskcolor="#d1d1d1" inkscape:zoom="1.0761719" inkscape:cx="120.33394" inkscape:cy="340.09437" inkscape:window-width="1920" inkscape:window-height="981" inkscape:window-x="0" inkscape:window-y="0" inkscape:window-maximized="1" inkscape:current-layer="svg1" />
  <!-- Font Awesome Free 5.15.1 by @fontawesome - https://fontawesome.com License - https://fontawesome.com/license/free (Icons: CC BY 4.0, Fonts: SIL OFL 1.1, Code: MIT License) -->
  <path d="m 416,32 h -384.1 c -17.6,0 -31.9,14.5 -31.9,32.3 v 383.4 c 0,17.8 14.3,32.3 31.9,32.3 h 384.1 c 17.6,0 32,-14.5 32,-32.3 v -383.4 c 0,-17.8 -14.4,-32.3 -32,-32.3 z m -280.6,384 h -66.4 v -213.8 h 66.5 v 213.8 z m -33.2,-243 c -21.3,0 -38.5,-17.3 -38.5,-38.5 0,-21.2 17.2,-38.5 38.5,-38.5 21.2,0 38.5,17.3 38.5,38.5 0,21.3 -17.2,38.5 -38.5,38.5 z m 282.1,243 h -66.4 v -104 c 0,-24.8 -0.5,-56.7 -34.5,-56.7 -34.6,0 -39.9,27 -39.9,54.9 v 105.8 h -66.4 v -213.8 h 63.7 v 29.2 h 0.9 c 8.9,-16.8 30.6,-34.5 62.9,-34.5 67.2,0 79.7,44.3 79.7,101.9 z" id="path1" style="fill:#f27a3d;fill-opacity:1" transform="translate(0,-32)" />
</svg>

<?xml version="1.0" encoding="UTF-8" standalone="no"?>
<svg viewBox="0 0 448 512" version="1.1" id="svg1" sodipodi:docname="linkedin.svg" inkscape:version="1.4 (unknown)" xmlns:inkscape="http://www.inkscape.org/namespaces/inkscape" xmlns:sodipodi="http://sodipodi.sourceforge.net/DTD/sodipodi-0.dtd" xmlns="http://www.w3.org/2000/svg" xmlns:svg="http://www.w3.org/2000/svg">
  <defs id="defs1" />
  <sodipodi:namedview id="namedview1" pagecolor="#505050" bordercolor="#eeeeee" borderopacity="1" inkscape:showpageshadow="0" inkscape:pageopacity="0" inkscape:pagecheckerboard="0" inkscape:deskcolor="#d1d1d1" inkscape:zoom="2.1523438" inkscape:cx="223.94192" inkscape:cy="256" inkscape:window-width="2560" inkscape:window-height="1341" inkscape:window-x="0" inkscape:window-y="0" inkscape:window-maximized="1" inkscape:current-layer="svg1" />
  <!-- Font Awesome Free 5.15.1 by @fontawesome - https://fontawesome.com License - https://fontawesome.com/license/free (Icons: CC BY 4.0, Fonts: SIL OFL 1.1, Code: MIT License) -->
  <path d="M416 32H31.9C14.3 32 0 46.5 0 64.3v383.4C0 465.5 14.3 480 31.9 480H416c17.6 0 32-14.5 32-32.3V64.3c0-17.8-14.4-32.3-32-32.3zM135.4 416H69V202.2h66.5V416zm-33.2-243c-21.3 0-38.5-17.3-38.5-38.5S80.9 96 102.2 96c21.2 0 38.5 17.3 38.5 38.5 0 21.3-17.2 38.5-38.5 38.5zm282.1 243h-66.4V312c0-24.8-.5-56.7-34.5-56.7-34.6 0-39.9 27-39.9 54.9V416h-66.4V202.2h63.7v29.2h.9c8.9-16.8 30.6-34.5 62.9-34.5 67.2 0 79.7 44.3 79.7 101.9V416z" id="path1" style="fill:#f27a3d;fill-opacity:1" />
</svg>
